X: 42
T: Tom Billy's Reel
R: reel
M: C|
L: 1/8
K: D
|: "D"d2dA "A7"BAFB |  "D"AFF2 "A7"EFDE | "D"F2AF "G"G2BG |1,3 "A7"ABde    fgfe  \
                                                         :|2,4 "A7"ABde "D"fdd2 :|
|: "D"faab     afdf | "Em"gefd "A7"edBg | "D"faab    afdB |  "A7"ABde "D"fddg  |
|  "D"faab     afdf | "Em"gefd "A7"edBA | "D"F2AF "G"G2BG |1 "A7"ABde "D"fdd2 :|2 "A7"ABde fg"d.C"fe |]
%%sep 2 1 500
